src/assets/img/wave-2.svg

<svg width="1440" height="178" viewBox="0 0 1440 178" fill="none" xmlns="http://www.w3.org/2000/svg">
<path d="M0 0L34.4 11.52C68.8 22.88 137.6 45.92 206.08 55.2C274.72 64.48 342.88 60.32 411.52 49.28C480 38.4 548.8 20.8 617.28 22.4C685.92 24 754.08 44.8 822.72 43.68C891.2 42.72 960 19.68 1028.48 15.52C1097.12 11.2 1165.28 25.6 1233.92 34.4C1302.4 43.2 1371.2 46.4 1405.6 48L1440 49.6V177.6H1405.6C1371.2 177.6 1302.4 177.6 1233.92 177.6C1165.28 177.6 1097.12 177.6 1028.48 177.6C960 177.6 891.2 177.6 822.72 177.6C754.08 177.6 685.92 177.6 617.28 177.6C548.8 177.6 480 177.6 411.52 177.6C342.88 177.6 274.72 177.6 206.08 177.6C137.6 177.6 68.8 177.6 34.4 177.6H0V0Z" fill="#42C2E2"/>
</svg>

<?xml version="1.0" encoding="utf-8"?>
<!-- Generator: Adobe Illustrator 24.1.0, SVG Export Plug-In . SVG Version: 6.00 Build 0)  -->
<svg version="1.1" id="Calque_1" xmlns="http://www.w3.org/2000/svg" xmlns:xlink="http://www.w3.org/1999/xlink" x="0px" y="0px"
	 viewBox="0 0 1440 178" style="enable-background:new 0 0 1440 178;" xml:space="preserve">
<style type="text/css">
	.st0{fill:#42C2E2;}
</style>
<path class="st0" d="M0,0l27.9,4.1c7,1,13.9,2.8,20.6,5.2c36.2,13,95.7,37.5,157.7,45.9c68.6,9.3,136.8,5.1,205.4-5.9
	C480,38.4,548.8,20.8,617.3,22.4c68.6,1.6,136.8,22.4,205.4,21.3c68.5-1,137.3-24,205.8-28.2c68.6-4.3,136.8,10.1,205.4,18.9
	c68.5,8.8,113.5-25.8,155.7-32.3c9-1.4,50.4-1.9,50.4-1.9v177.4h-34.4c-34.4,0-103.2,0-171.7,0c-68.6,0-136.8,0-205.4,0
	c-68.5,0-137.3,0-205.8,0c-68.6,0-136.8,0-205.4,0c-68.5,0-137.3,0-205.8,0c-68.6,0-136.8,0-205.4,0c-68.5,0-137.3,0-171.7,0H0V0z"
	/>
</svg>
